!! 00000] TT[WS
!!!OTL: Jieme guandeng
!!!ARE: Asia, China, Shanxi Huoxian
!! Ethnic Group: Han
!! WI, 178
!!!SCT: J0212a
!!!YEM: Copyright 1995, estate of Helmut Schaffrath.
**kern
*ICvox
*Ivox
*M2/4
*k[f#c#]
*D:
{8r
8ff#
8ff#
8ee
=1
8ff#
8ee
4dd
=2
8ff#
4ff#
16ee
16dd
=3
8ee
8dd
8b
[8dd
=4
8dd]}
{8ff#
8cc#
16b
16b
=5
8a
8f#
4a
=6
8b
8dd
8b
8f#
=7
2a}
=8
{8dd
8f#
8f#
8f#
=9
8b
8dd
8b
8dd
=10
8b
8dd
8f#
8e
=11
2f#}
=12
{8dd
16dd
16dd
16b
16dd
16b
16a
=13
8b
8dd
4f#
=14
8a
16f#
16f#
8e
8f#
=15
8e
8f#
8r}
{8ff#
=16
8ee
8ff#
8b
8ee
=17
4dd
16cc#
16ee
16cc#
16b
=18
4a
16b
16cc#
8b
=19
2a}
==
!!!AGN: Xiaodiao. Fengsuge, Qingge
!!!ONB: ESAC (Essen Associative Code) Database: CHINA
!!!AMT: simple duple
!!!AIN: vox
!!!EED: Helmut Schaffrath
!!!EEV: 1.0
*-
!!!ONB: Tied note syntax fixed by Craig Sapp, 2004/05/03/
